assets/img/logos/agencies/FDA.svg

<?xml version="1.0" encoding="UTF-8" standalone="no"?>
<svg xmlns:rdf="http://www.w3.org/1999/02/22-rdf-syntax-ns#" xmlns="http://www.w3.org/2000/svg" version="1.0" xmlns:cc="http://creativecommons.org/ns#" xmlns:dc="http://purl.org/dc/elements/1.1/" viewBox="0 0 476.92 196.56">
 <path d="m24.549 194.21h-21.615v-191.56h190.03c83.355 0 96.509 74.881 96.509 74.881l46.775-74.881h49.015l89.597 145.24-28.068 46.314h-118.14v-23.106h132.14l-100.09-168.45s-65.964 114.78-80.125 137.14c-14.162 22.361-40.763 54.411-86.327 54.411h-70.569v-114.04h22.361v90.933h51.429c22.744 0 71.554-19.379 71.554-74.162s-52.175-71.926-69.318-71.926h-175.16v169.19zm7.4535 0v-81.243h83.479v22.361h-61.119v58.883h-22.361zm83.479-90.933v-23.106h-61.119v-24.508h140.64c21.082 0 43.466 17.054 43.466 42.023s-22.625 42.112-38.758 42.112h-21.924v-59.628h-23.106v81.989h45.03c28.52 0 61.491-24.754 61.491-63.728 0-38.601-29.986-65.218-65.844-65.218h-163.35v70.063h83.479zm142.73 90.933 102.49-169.19 84.225 137.14h-116.27v-22.361h75.28l-43.23-70.436-71.181 124.85h-31.305z"/>
</svg>

<svg xmlns="http://www.w3.org/2000/svg" version="1.0" viewBox="0 0 476.92 196.56"><path d="M24.549 194.21H2.934V2.65h190.03c83.355 0 96.509 74.881 96.509 74.881L336.248 2.65h49.015l89.597 145.24-28.068 46.314h-118.14v-23.106h132.14L360.702 2.648s-65.964 114.78-80.125 137.14c-14.162 22.361-40.763 54.411-86.327 54.411h-70.569V80.159h22.361v90.933h51.429c22.744 0 71.554-19.379 71.554-74.162s-52.175-71.926-69.318-71.926H24.547v169.19zm7.454 0v-81.243h83.478v22.361H54.363v58.883H32zm83.478-90.933V80.171H54.363V55.663h140.64c21.082 0 43.466 17.054 43.466 42.023s-22.625 42.112-38.758 42.112h-21.925V80.17H154.68v81.989h45.03c28.52 0 61.491-24.754 61.491-63.728 0-38.601-29.986-65.218-65.844-65.218H32.008v70.063h83.48zm142.73 90.933l102.49-169.19 84.225 137.14h-116.27v-22.361h75.28l-43.23-70.436-71.18 124.85H258.22z"/></svg>
